;START_OF_HEADER
;HEADER_VERSION:0.1
;FLAVOR:Griffin
;GENERATOR.NAME:PATHIO
;GENERATOR.VERSION:0.0.2
;GENERATOR.BUILD_DATE:2019-07-23
;TARGET_MACHINE.NAME:Generic/Custom
;EXTRUDER_TRAIN.0.INITIAL_TEMPERATURE:0
;EXTRUDER_TRAIN.0.MATERIAL.VOLUME_USED:12034
;EXTRUDER_TRAIN.0.NOZZLE.DIAMETER:0.40
;BUILD_PLATE.INITIAL_TEMPERATURE:0
;PRINT.TIME:4908
;PRINT.SIZE.MIN.X:120
;PRINT.SIZE.MIN.Y:85
;PRINT.SIZE.MIN.Z:0
;PRINT.SIZE.MAX.X:180
;PRINT.SIZE.MAX.Y:115
;PRINT.SIZE.MAX.Z:48
;END_OF_HEADER
;Generated by PATHIO
;   Date: 2019-07-23
;   Time: 13-07-10 UTC
;   Options: To be continued

; PATHIO: Pathio necessary settings
G21 ;Set printer to use mm
G92 E0 ;Set Extrude to 0
G90 ; Set absolute positioning
M83 ;Set extruder to relative mode
M200 D0 ;Set printer to treat E as mm, not mm^3)

; Enable Mesh Compensation.
M562 S1

; Select Tool
T0

; PATHIO: Pathio necessary settings
G21 ;Set printer to use mm
G92 E0 ;Set Extrude to 0
G90 ; Set absolute positioning
M83 ;Set extruder to relative mode
M200 D0 ;Set printer to treat E as mm, not mm^3)

; PATHIO: New layer
; layer 1, Z = 0.200000
G92 E0.00 ; Set the current filament position to E=0.00
G1 E-4.00 F6000 ; Retraction
G1 Z0.50 ; ZHop
; PATHIO: Starting new track
; tool H0.200000 W0.480000
; skirt
; indexLimit: 74
G1 X150.92 Y110.08 Z0.70 F21000 ; Travel
G1 Z0.20 ; Undo ZHop
G1 E4.00 F3000 ; Unretract
G1 X149.99 Y110.10 Z0.20 E0.0374 F1200
G1 X149.00 Y110.07 E0.0394
G1 X125.33 Y108.61 E0.9463
G1 X124.85 Y108.51 E0.0198
G1 X124.77 Y108.49 E0.0034
G1 X124.37 Y108.35 E0.0167
G1 X123.92 Y108.11 E0.0205
G1 X123.55 Y107.86 E0.0179
G1 X123.18 Y107.53 E0.0197
G1 X122.84 Y107.12 E0.0213
G1 X122.60 Y106.74 E0.0178
G1 X122.39 Y106.28 E0.0205
G1 X122.23 Y105.76 E0.0214
G1 X122.15 Y105.31 E0.0183
G1 X122.13 Y104.85 E0.0186
G1 X122.15 Y94.72 E0.4043
G1 X122.24 Y94.22 E0.0202
G1 X122.39 Y93.72 E0.0207
G1 X122.61 Y93.25 E0.0208
G1 X122.85 Y92.86 E0.0184
G1 X123.18 Y92.48 E0.0200
G1 X123.58 Y92.12 E0.0214
G1 X123.99 Y91.84 E0.0198
G1 X124.46 Y91.62 E0.0208
G1 X124.98 Y91.45 E0.0218
G1 X125.46 Y91.37 E0.0195
G1 X126.81 Y91.28 E0.0540
G1 X149.76 Y89.90 E0.9176
G1 X150.66 Y89.91 E0.0361
G1 X151.63 Y89.97 E0.0385
G1 X152.53 Y90.08 E0.0364
G1 X153.38 Y90.23 E0.0344
G1 X154.30 Y90.44 E0.0377
G1 X155.18 Y90.70 E0.0366
G1 X156.05 Y91.00 E0.0365
G1 X156.86 Y91.34 E0.0352
G1 X157.71 Y91.74 E0.0374
G1 X158.49 Y92.16 E0.0357
G1 X159.34 Y92.68 E0.0395
G1 X160.07 Y93.19 E0.0355
G1 X160.81 Y93.77 E0.0379
G1 X161.48 Y94.36 E0.0353
G1 X162.14 Y95.00 E0.0366
G1 X162.81 Y95.72 E0.0394
G1 X163.40 Y96.44 E0.0371
G1 X163.95 Y97.19 E0.0372
G1 X164.47 Y98.00 E0.0384
G1 X164.79 Y98.57 E0.0263
G1 X164.99 Y99.11 E0.0227
G1 X165.09 Y99.58 E0.0191
G1 X165.12 Y100.04 E0.0185
G1 X165.08 Y100.52 E0.0194
G1 X164.98 Y100.94 E0.0172
G1 X164.78 Y101.45 E0.0216
G1 X164.47 Y102.00 E0.0252
G1 X163.95 Y102.80 E0.0382
G1 X163.42 Y103.53 E0.0360
G1 X162.92 Y104.15 E0.0318
G1 X162.32 Y104.81 E0.0358
G1 X161.69 Y105.45 E0.0360
G1 X160.99 Y106.08 E0.0375
G1 X160.30 Y106.64 E0.0355
G1 X159.50 Y107.21 E0.0391
G1 X158.70 Y107.72 E0.0378
G1 X157.90 Y108.16 E0.0366
G1 X157.03 Y108.59 E0.0385
G1 X156.19 Y108.95 E0.0366
G1 X155.34 Y109.25 E0.0361
G1 X154.46 Y109.51 E0.0367
G1 X153.55 Y109.73 E0.0373
G1 X152.69 Y109.89 E0.0346
G1 X151.77 Y110.01 E0.0370
G1 X150.92 Y110.08 E0.0340
G1 E-4.00 F6000 ; Retraction
G1 Z0.70 ; ZHop
; PATHIO: Track complete

; PATHIO: Starting new track
; tool H0.200000 W0.480000
; outer perimeter
; indexLimit: 58
G1 X150.14 Y107.85 Z0.70 F21000 ; Travel
G1 Z0.20 ; Undo ZHop
G1 E4.00 F3000 ; Unretract
G1 X149.51 Y107.85 Z0.20 E0.0253 F1200
G1 X125.94 Y106.42 E0.9422
G1 X125.57 Y106.38 E0.0149
G1 X125.24 Y106.28 E0.0136
G1 X124.90 Y106.07 E0.0163
G1 X124.64 Y105.78 E0.0155
G1 X124.45 Y105.40 E0.0168
G1 X124.39 Y105.10 E0.0123
G1 X124.37 Y95.14 E0.3978
G1 X124.38 Y94.91 E0.0091
G1 X124.49 Y94.50 E0.0170
G1 X124.66 Y94.19 E0.0137
G1 X124.92 Y93.91 E0.0156
G1 X125.23 Y93.72 E0.0144
G1 X125.57 Y93.62 E0.0142
G1 X147.38 Y92.28 E0.8722
G1 X149.45 Y92.15 E0.0825
G1 X150.37 Y92.14 E0.0369
G1 X151.25 Y92.19 E0.0350
G1 X152.10 Y92.28 E0.0343
G1 X152.92 Y92.43 E0.0333
G1 X153.72 Y92.61 E0.0326
G1 X154.50 Y92.83 E0.0327
G1 X155.36 Y93.14 E0.0363
G1 X156.17 Y93.48 E0.0350
G1 X156.86 Y93.82 E0.0308
G1 X157.60 Y94.24 E0.0339
G1 X158.37 Y94.73 E0.0362
G1 X159.06 Y95.24 E0.0342
G1 X159.67 Y95.74 E0.0317
G1 X160.32 Y96.35 E0.0355
G1 X160.95 Y97.01 E0.0365
G1 X161.59 Y97.76 E0.0392
G1 X162.03 Y98.36 E0.0295
G1 X162.57 Y99.18 E0.0393
G1 X162.80 Y99.61 E0.0198
G1 X162.88 Y99.97 E0.0144
G1 X162.83 Y100.31 E0.0140
G1 X162.67 Y100.64 E0.0144
G1 X162.21 Y101.38 E0.0349
G1 X161.72 Y102.06 E0.0333
G1 X161.14 Y102.78 E0.0371
G1 X160.56 Y103.41 E0.0340
G1 X159.94 Y104.02 E0.0347
G1 X159.30 Y104.57 E0.0338
G1 X158.64 Y105.08 E0.0333
G1 X157.92 Y105.57 E0.0349
G1 X157.17 Y106.01 E0.0345
G1 X156.41 Y106.41 E0.0343
G1 X155.66 Y106.74 E0.0330
G1 X154.89 Y107.04 E0.0327
G1 X154.58 Y107.14 E0.0132
G1 X153.73 Y107.39 E0.0353
G1 X152.93 Y107.57 E0.0326
G1 X152.11 Y107.71 E0.0334
G1 X151.26 Y107.81 E0.0341
G1 X150.38 Y107.86 E0.0352
G1 E-4.00 F6000 ; Retraction
G1 X149.51 Y107.85 F1200 ; Travel
G1 X146.15 Y107.64 ; Travel
G1 Z0.70 ; ZHop
; PATHIO: Track complete

; PATHIO: Starting new track
; tool H0.200000 W0.480000
; inner perimeter
; indexLimit: 224
G1 X135.80 Y98.49 Z0.70 F21000 ; Travel
G1 Z0.20 ; Undo ZHop
G1 E4.00 F3000 ; Unretract
G1 X135.83 Y98.54 Z0.20 E0.0026 F1200
G1 X136.08 Y98.75 E0.0129
G1 X136.35 Y98.89 E0.0120
G1 X136.39 Y98.97 E0.0038
G1 X136.23 Y99.32 E0.0155
G1 X136.16 Y99.68 E0.0144
G1 X136.19 Y100.00 E0.0128
G1 X136.28 Y100.27 E0.0113
G1 X136.43 Y100.47 E0.0101
G1 X136.63 Y100.65 E0.0105
G1 X136.93 Y100.79 E0.0133
G1 X137.45 Y100.89 E0.0214
G1 X137.73 Y101.02 E0.0122
G1 X137.89 Y101.24 E0.0109
G1 X137.91 Y101.34 E0.0040
G1 X137.87 Y101.41 E0.0033
G1 X137.79 Y101.40 E0.0033
G1 X137.69 Y101.32 E0.0052
G1 X137.35 Y101.10 E0.0158
G1 X136.99 Y100.99 E0.0152
G1 X136.62 Y100.97 E0.0149
G1 X136.26 Y101.04 E0.0146
G1 X135.95 Y101.20 E0.0138
G1 X135.71 Y101.44 E0.0136
G1 X135.57 Y101.69 E0.0112
G1 X135.49 Y102.06 E0.0152
G1 X135.51 Y102.42 E0.0146
G1 X135.62 Y102.77 E0.0148
G1 X135.80 Y103.07 E0.0138
G1 X136.09 Y103.34 E0.0157
G1 X136.47 Y103.55 E0.0172
G1 X136.85 Y103.68 E0.0160
G1 X137.25 Y103.75 E0.0163
G1 X137.71 Y103.78 E0.0186
G1 X138.15 Y103.75 E0.0176
G1 X138.56 Y103.68 E0.0165
G1 X138.95 Y103.54 E0.0164
G1 X139.31 Y103.34 E0.0167
G1 X139.63 Y103.08 E0.0163
G1 X139.90 Y102.77 E0.0165
G1 X140.13 Y102.42 E0.0168
G1 X140.29 Y102.03 E0.0168
G1 X140.40 Y101.63 E0.0163
G1 X140.39 Y102.14 E0.0201
G1 X140.42 Y102.60 E0.0186
G1 X140.51 Y102.93 E0.0137
G1 X140.69 Y103.23 E0.0138
G1 X140.84 Y103.39 E0.0086
G1 X141.06 Y103.53 E0.0105
G1 X141.30 Y103.61 E0.0103
G1 X143.05 Y103.60 E0.0697
G1 X143.57 Y103.56 E0.0207
G1 X144.01 Y103.48 E0.0181
G1 X144.41 Y103.36 E0.0165
G1 X144.79 Y103.17 E0.0167
G1 X145.14 Y102.92 E0.0173
G1 X145.30 Y103.26 E0.0149
G1 X145.54 Y103.57 E0.0156
G1 X145.82 Y103.80 E0.0145
G1 X146.18 Y103.98 E0.0158
G1 X146.53 Y104.07 E0.0146
G1 X146.93 Y104.08 E0.0158
G1 X147.28 Y104.01 E0.0143
G1 X147.61 Y103.87 E0.0142
G1 X147.89 Y103.67 E0.0139
G1 X148.15 Y103.39 E0.0150
G1 X148.35 Y103.57 E0.0105
G1 X148.67 Y103.74 E0.0148
G1 X148.99 Y103.80 E0.0130
G1 X149.27 Y103.78 E0.0111
G1 X149.52 Y103.69 E0.0106
G1 X149.80 Y103.48 E0.0139
G1 X150.08 Y103.14 E0.0174
G1 X150.13 Y103.12 E0.0022
G1 X150.38 Y103.46 E0.0166
G1 X150.64 Y103.67 E0.0136
G1 X150.89 Y103.77 E0.0105
G1 X151.23 Y103.82 E0.0141
G1 X151.64 Y103.75 E0.0165
G1 X151.96 Y103.58 E0.0144
G1 X152.15 Y103.41 E0.0103
G1 X152.33 Y103.09 E0.0144
G1 X152.40 Y102.47 E0.0250
G1 X152.31 Y102.11 E0.0148
G1 X151.84 Y101.26 E0.0389
G1 X151.56 Y100.81 E0.0212
G1 X151.52 Y100.67 E0.0055
G1 X152.12 Y99.66 E0.0470
G1 X152.26 Y99.99 E0.0140
G1 X152.97 Y101.87 E0.0801
G1 X153.32 Y102.72 E0.0370
G1 X153.18 Y103.02 E0.0134
G1 X152.97 Y103.56 E0.0229
G1 X152.83 Y103.84 E0.0123
G1 X152.75 Y103.89 E0.0038
G1 X152.67 Y103.92 E0.0034
G1 X152.58 Y103.95 E0.0040
G1 X152.20 Y104.06 E0.0158
G1 X151.91 Y104.24 E0.0134
G1 X151.76 Y104.41 E0.0092
G1 X151.62 Y104.68 E0.0119
G1 X151.57 Y104.94 E0.0108
G1 X151.58 Y105.19 E0.0099
G1 X151.67 Y105.55 E0.0148
G1 X151.85 Y105.87 E0.0146
G1 X152.07 Y106.09 E0.0126
G1 X152.33 Y106.25 E0.0122
G1 X152.65 Y106.33 E0.0132
G1 X153.10 Y106.32 E0.0179
G1 X153.47 Y106.24 E0.0151
G1 X153.86 Y106.09 E0.0165
G1 X154.19 Y105.90 E0.0153
G1 X154.54 Y105.56 E0.0196
G1 X154.74 Y105.27 E0.0138
G1 X154.95 Y104.87 E0.0180
G1 X155.36 Y103.87 E0.0433
G1 X156.35 Y101.13 E0.1163
G1 X156.67 Y100.18 E0.0401
G1 X156.83 Y99.80 E0.0163
G1 X157.02 Y99.96 E0.0096
G1 X157.38 Y100.12 E0.0157
G1 X157.78 Y100.18 E0.0162
G1 X156.89 Y101.41 E0.0607
G1 X156.68 Y101.75 E0.0158
G1 X156.52 Y102.18 E0.0186
G1 X156.48 Y102.67 E0.0195
G1 X156.56 Y103.03 E0.0145
G1 X156.70 Y103.31 E0.0125
G1 X156.91 Y103.55 E0.0129
G1 X157.20 Y103.73 E0.0134
G1 X157.47 Y103.81 E0.0115
G1 X159.46 Y103.80 E0.0793
G1 X159.18 Y104.05 E0.0148
G1 X158.62 Y104.49 E0.0287
G1 X157.97 Y104.96 E0.0318
G1 X157.25 Y105.41 E0.0340
G1 X156.58 Y105.79 E0.0307
G1 X155.85 Y106.14 E0.0323
G1 X155.16 Y106.43 E0.0300
G1 X154.35 Y106.71 E0.0342
G1 X153.48 Y106.96 E0.0360
G1 X152.71 Y107.13 E0.0317
G1 X151.85 Y107.26 E0.0347
G1 X151.05 Y107.34 E0.0321
G1 X150.14 Y107.38 E0.0362
G1 X127.77 Y106.05 E0.8945
G1 X125.74 Y105.92 E0.0812
G1 X125.37 Y105.81 E0.0156
G1 X125.13 Y105.62 E0.0122
G1 X124.97 Y105.40 E0.0107
G1 X124.86 Y105.02 E0.0158
G1 X124.85 Y102.23 E0.1116
G1 X125.09 Y102.59 E0.0174
G1 X125.38 Y102.91 E0.0174
G1 X125.71 Y103.20 E0.0175
G1 X126.08 Y103.43 E0.0174
G1 X126.49 Y103.60 E0.0177
G1 X126.98 Y103.72 E0.0199
G1 X127.45 Y103.77 E0.0192
G1 X127.93 Y103.76 E0.0189
G1 X128.35 Y103.70 E0.0171
G1 X128.74 Y103.59 E0.0162
G1 X129.10 Y103.41 E0.0160
G1 X129.42 Y103.19 E0.0153
G1 X129.69 Y102.92 E0.0155
G1 X129.87 Y102.66 E0.0124
G1 X130.05 Y102.25 E0.0182
G1 X130.08 Y101.90 E0.0139
G1 X130.01 Y101.60 E0.0122
G1 X129.91 Y101.40 E0.0091
G1 X129.72 Y101.18 E0.0117
G1 X129.39 Y100.96 E0.0158
G1 X129.04 Y100.84 E0.0148
G1 X128.67 Y100.82 E0.0146
G1 X128.33 Y100.91 E0.0143
G1 X128.01 Y101.10 E0.0147
G1 X127.83 Y101.30 E0.0108
G1 X127.73 Y101.33 E0.0042
G1 X127.63 Y101.34 E0.0042
G1 X127.34 Y101.31 E0.0115
G1 X127.09 Y101.17 E0.0114
G1 X126.93 Y100.93 E0.0117
G1 X126.82 Y100.56 E0.0154
G1 X126.78 Y99.93 E0.0252
G1 X126.82 Y99.44 E0.0196
G1 X126.91 Y99.05 E0.0158
G1 X127.07 Y98.78 E0.0127
G1 X127.30 Y98.63 E0.0108
G1 X127.56 Y98.59 E0.0108
G1 X127.65 Y98.62 E0.0037
G1 X128.09 Y98.88 E0.0204
G1 X128.51 Y99.06 E0.0182
G1 X128.85 Y99.12 E0.0139
G1 X129.17 Y99.08 E0.0128
G1 X129.44 Y98.97 E0.0116
G1 X129.73 Y98.73 E0.0152
G1 X129.99 Y98.39 E0.0170
G1 X130.18 Y98.56 E0.0103
G1 X130.48 Y98.71 E0.0135
G1 X130.82 Y98.76 E0.0134
G1 X131.59 Y98.70 E0.0311
G1 X131.57 Y101.22 E0.1006
G1 X131.58 Y101.83 E0.0243
G1 X131.54 Y102.37 E0.0216
G1 X131.56 Y102.71 E0.0136
G1 X131.65 Y103.01 E0.0126
G1 X131.81 Y103.25 E0.0114
G1 X132.01 Y103.42 E0.0108
G1 X132.27 Y103.55 E0.0114
G1 X132.64 Y103.63 E0.0155
G1 X133.01 Y103.60 E0.0145
G1 X133.34 Y103.48 E0.0140
G1 X133.55 Y103.32 E0.0108
G1 X133.72 Y103.12 E0.0104
G1 X133.87 Y102.84 E0.0126
G1 X133.96 Y102.38 E0.0188
G1 X133.95 Y101.82 E0.0224
G1 Y98.78 E0.1214
G1 X134.01 Y98.72 E0.0030
G1 X134.52 E0.0205
G1 X134.99 Y98.66 E0.0190
G1 X135.31 Y98.54 E0.0134
G1 X135.66 Y98.29 E0.0170
G1 E-4.00 F6000 ; Retraction
G1 Z0.70 ; ZHop
; PATHIO: Track complete

; PATHIO: Starting new track
; tool H0.200000 W0.480000
; solid layer
; indexLimit: 52
G1 X134.37 Y102.29 Z0.70 F21000 ; Travel
G1 Z0.20 ; Undo ZHop
G1 E4.00 F3000 ; Unretract
G1 X138.35 Y106.27 Z0.20 E0.2249 F1200
G1 X137.63 Y106.23 E0.0289
G1 X134.28 Y102.88 E0.1891
G1 X134.16 Y103.19 E0.0133
G1 X134.06 Y103.34 E0.0072
G1 X136.91 Y106.19 E0.1608
G1 X136.19 Y106.14 E0.0289
G1 X133.74 Y103.69 E0.1382
G1 X133.70 Y103.73 E0.0022
G1 X133.38 Y103.91 E0.0147
G1 X133.30 Y103.93 E0.0032
G1 X135.46 Y106.10 E0.1222
G1 X134.74 Y106.06 E0.0289
G1 X132.72 Y104.04 E0.1141
G1 X132.70 E0.0007
G1 X132.38 Y104.00 E0.0129
G1 X132.07 Y103.91 E0.0131
G1 X131.80 Y103.77 E0.0122
G1 X131.67 Y103.67 E0.0064
G1 X134.02 Y106.01 E0.1325
G1 X133.30 Y105.97 E0.0289
G1 X130.21 Y102.88 E0.1744
G1 X130.00 Y103.18 E0.0148
G1 X129.92 Y103.27 E0.0046
G1 X132.58 Y105.93 E0.1502
G1 X131.86 Y105.89 E0.0289
G1 X129.56 Y103.59 E0.1296
G1 X129.42 Y103.70 E0.0069
G1 X129.14 Y103.85 E0.0128
G1 X131.13 Y105.84 E0.1124
G1 X130.41 Y105.80 E0.0289
G1 X128.65 Y104.04 E0.0993
G1 X128.27 Y104.13 E0.0159
G1 X128.08 Y104.15 E0.0073
G1 X129.69 Y105.76 E0.0907
G1 X128.97 Y105.71 E0.0289
G1 X127.43 Y104.17 E0.0870
G1 X127.25 E0.0070
G1 X126.71 Y104.09 E0.0220
G1 X126.64 Y104.07 E0.0027
G1 X128.25 Y105.67 E0.0906
G1 X127.79 Y105.64 E0.0181
G1 X127.53 Y105.63 E0.0108
G1 X125.35 Y103.45 E0.1230
G1 X125.29 Y103.44 E0.0021
G1 X125.26 Y103.51 E0.0029
G1 Y104.04 E0.0214
G1 X126.80 Y105.58 E0.0869
G1 X126.08 Y105.54 E0.0290
G1 X125.27 Y104.73 E0.0456
G1 E-4.00 F6000 ; Retraction
G1 Z0.70 ; ZHop
; PATHIO: Track complete

; PATHIO: Starting new track
; tool H0.200000 W0.480000
; solid layer
; indexLimit: 17
G1 X127.96 Y99.27 Z0.70 F21000 ; Travel
G1 Z0.20 ; Undo ZHop
G1 E4.00 F3000 ; Unretract
G1 X129.13 Y100.45 Z0.20 E0.0664 F1200
G1 X128.88 Y100.41 E0.0103
G1 X128.53 Y100.43 E0.0139
G1 X128.46 Y100.45 E0.0029
G1 X127.28 Y99.27 E0.0665
G1 X127.24 Y99.40 E0.0054
G1 X127.23 Y99.42 E0.0007
G1 X127.19 Y99.79 E0.0151
G1 Y99.80 E0.0004
G1 X127.20 Y99.87 E0.0026
G1 X127.97 Y100.64 E0.0436
G1 X127.91 Y100.67 E0.0027
G1 X127.63 Y100.90 E0.0146
G1 X127.59 Y100.92 E0.0018
G1 X127.57 E0.0006
G1 X127.26 Y100.61 E0.0174
G1 E-4.00 F6000 ; Retraction
G1 Z0.70 ; ZHop
; PATHIO: Track complete

; PATHIO: Starting new track
; tool H0.200000 W0.480000
; solid layer
; indexLimit: 19
G1 X131.46 Y103.45 Z0.70 F21000 ; Travel
G1 Z0.20 ; Undo ZHop
G1 E4.00 F3000 ; Unretract
G1 X130.41 Y102.40 Z0.20 E0.0590 F1200
G1 X130.50 Y102.00 E0.0165
G1 X130.49 Y101.86 E0.0058
G1 X130.47 Y101.79 E0.0027
G1 X131.14 Y102.45 E0.0373
G1 X131.15 Y101.79 E0.0264
G1 X128.88 Y99.52 E0.1280
G1 X129.13 Y99.51 E0.0099
G1 X129.42 Y99.43 E0.0118
G1 X129.45 Y99.41 E0.0017
G1 X131.16 Y101.12 E0.0963
G1 Y100.44 E0.0272
G1 X129.87 Y99.15 E0.0725
G1 X130.03 Y99.01 E0.0086
G1 X130.11 Y98.99 E0.0031
G1 X130.37 Y99.10 E0.0114
G1 X130.54 Y99.13 E0.0067
G1 X131.16 Y99.75 E0.0350
G1 E-4.00 F6000 ; Retraction
G1 Z0.70 ; ZHop
; PATHIO: Track complete

; PATHIO: Starting new track
; tool H0.200000 W0.480000
; solid layer
; indexLimit: 91
G1 X151.24 Y104.23 Z0.70 F21000 ; Travel
G1 Z0.20 ; Undo ZHop
G1 E4.00 F3000 ; Unretract
G1 X151.32 Y104.31 Z0.20 E0.0044 F1200
G1 Y104.32 E0.0007
G1 X151.19 Y104.71 E0.0161
G1 X151.18 Y104.84 E0.0055
G1 X150.17 Y103.83 E0.0571
G1 X150.10 Y103.82 E0.0029
G1 X149.70 Y104.04 E0.0181
G1 X151.27 Y105.61 E0.0888
G1 X151.32 Y105.78 E0.0067
G1 X151.49 Y106.06 E0.0132
G1 X151.68 Y106.29 E0.0118
G1 X151.99 Y106.53 E0.0157
G1 X152.27 Y106.66 E0.0124
G1 X152.31 Y106.72 E0.0029
G1 X152.25 Y106.79 E0.0039
G1 X151.83 Y106.85 E0.0170
G1 X149.18 Y104.20 E0.1499
G1 X149.14 Y104.21 E0.0016
G1 X148.79 Y104.19 E0.0137
G1 X148.49 Y104.11 E0.0126
G1 X148.33 Y104.03 E0.0073
G1 X151.22 Y106.92 E0.1632
G1 X151.02 Y106.94 E0.0078
G1 E0.0002
G1 X150.57 Y106.95 E0.0177
G1 X147.83 Y104.21 E0.1551
G1 X147.49 Y104.37 E0.0148
G1 X147.34 Y104.40 E0.0060
G1 X149.90 Y106.96 E0.1441
G1 X149.18 Y106.91 E0.0289
G1 X146.75 Y104.49 E0.1368
G1 X146.39 Y104.46 E0.0144
G1 X146.02 Y104.36 E0.0153
G1 X145.86 Y104.28 E0.0071
G1 X148.45 Y106.87 E0.1462
G1 X147.73 Y106.83 E0.0289
G1 X144.61 Y103.71 E0.1760
G1 X144.55 Y103.74 E0.0027
G1 X144.10 Y103.88 E0.0188
G1 X147.01 Y106.79 E0.1642
G1 X146.29 Y106.74 E0.0289
G1 X143.52 Y103.97 E0.1564
G1 X143.06 Y104.01 E0.0184
G1 X142.88 E0.0074
G1 X145.57 Y106.70 E0.1520
G1 X144.85 Y106.66 E0.0289
G1 X142.20 Y104.01 E0.1494
G1 X141.52 E0.0270
G1 X144.12 Y106.61 E0.1469
G1 X143.40 Y106.57 E0.0289
G1 X140.06 Y103.23 E0.1885
G1 X139.71 Y103.55 E0.0192
