; G-Code generated by Simplify3D(R) Version 4.1.2
; Jul 26, 2019 at 2:58:12 PM
; Settings Summary
;   processName,T0
;   applyToModels,T0 - X,T0 - X(2),T0 - X(3),T0 - Y,T0 - Y(2),T0 - Y(3),X,Y
;   profileName,ToolChanger T0 (modified)
;   profileVersion,2019-07-26 10:50:01
;   baseProfile,Generic Dual Extrusion Profile (modified)
;   printMaterial,PLA
;   printQuality,Medium
;   printExtruders,Both Extruders
;   extruderName,T0
;   extruderToolheadNumber,0
;   extruderDiameter,0.4
;   extruderAutoWidth,1
;   extruderWidth,0.48
;   extrusionMultiplier,1
;   extruderUseRetract,1
;   extruderRetractionDistance,4
;   extruderExtraRestartDistance,0
;   extruderRetractionZLift,0.5
;   extruderRetractionSpeed,3000
;   extruderUseCoasting,1
;   extruderCoastingDistance,0.3
;   extruderUseWipe,1
;   extruderWipeDistance,4
;   primaryExtruder,0
;   layerHeight,0.25
;   topSolidLayers,0
;   bottomSolidLayers,0
;   perimeterOutlines,2
;   printPerimetersInsideOut,1
;   startPointOption,3
;   startPointOriginX,0
;   startPointOriginY,100
;   sequentialIslands,1
;   spiralVaseMode,0
;   firstLayerHeightPercentage,100
;   firstLayerWidthPercentage,100
;   firstLayerUnderspeed,0.5
;   useRaft,0
;   raftExtruder,0
;   raftTopLayers,3
;   raftBaseLayers,2
;   raftOffset,1
;   raftSeparationDistance,0
;   raftTopInfill,100
;   aboveRaftSpeedMultiplier,0.3
;   useSkirt,0
;   skirtExtruder,0
;   skirtLayers,1
;   skirtOutlines,1
;   skirtOffset,3
;   usePrimePillar,1
;   primePillarExtruder,999
;   primePillarWidth,10
;   primePillarLocation,6
;   primePillarSpeedMultiplier,1
;   useOozeShield,0
;   oozeShieldExtruder,0
;   oozeShieldOffset,2
;   oozeShieldOutlines,1
;   oozeShieldSidewallShape,2
;   oozeShieldSidewallAngle,30
;   oozeShieldSpeedMultiplier,1
;   infillExtruder,0
;   internalInfillPattern,Grid
;   externalInfillPattern,Rectilinear
;   infillPercentage,0
;   outlineOverlapPercentage,0
;   infillExtrusionWidthPercentage,100
;   minInfillLength,5
;   infillLayerInterval,1
;   internalInfillAngles,45,-45
;   overlapInternalInfillAngles,1
;   externalInfillAngles,45,-45
;   generateSupport,0
;   supportExtruder,0
;   supportInfillPercentage,20
;   supportExtraInflation,0.5
;   supportBaseLayers,1
;   denseSupportExtruder,0
;   denseSupportLayers,0
;   denseSupportInfillPercentage,90
;   supportLayerInterval,1
;   supportHorizontalPartOffset,0.75
;   supportUpperSeparationLayers,1
;   supportLowerSeparationLayers,1
;   supportType,0
;   supportGridSpacing,100
;   maxOverhangAngle,89
;   supportAngles,45
;   temperatureName,T0,Bed
;   temperatureNumber,0,0
;   temperatureSetpointCount,1,1
;   temperatureSetpointLayers,1,1
;   temperatureSetpointTemperatures,220,60
;   temperatureStabilizeAtStartup,1,1
;   temperatureHeatedBed,0,1
;   fanLayers,1
;   fanSpeeds,0
;   blipFanToFullPower,0
;   adjustSpeedForCooling,1
;   minSpeedLayerTime,5
;   minCoolingSpeedSlowdown,10
;   increaseFanForCooling,0
;   minFanLayerTime,5
;   maxCoolingFanSpeed,75
;   increaseFanForBridging,0
;   bridgingFanSpeed,75
;   use5D,1
;   relativeEdistances,1
;   allowEaxisZeroing,1
;   independentExtruderAxes,0
;   includeM10123,0
;   stickySupport,1
;   applyToolheadOffsets,0
;   gcodeXoffset,0
;   gcodeYoffset,0
;   gcodeZoffset,0
;   overrideMachineDefinition,1
;   machineTypeOverride,0
;   strokeXoverride,300
;   strokeYoverride,200
;   strokeZoverride,300
;   originOffsetXoverride,0
;   originOffsetYoverride,0
;   originOffsetZoverride,0
;   homeXdirOverride,-1
;   homeYdirOverride,-1
;   homeZdirOverride,-1
;   flipXoverride,1
;   flipYoverride,-1
;   flipZoverride,1
;   toolheadOffsets,0,0|0,0|0,0|0,0|0,0|0,0
;   overrideFirmwareConfiguration,0
;   firmwareTypeOverride,RepRap (Marlin/Repetier/Sprinter)
;   GPXconfigOverride,r2
;   baudRateOverride,115200
;   overridePrinterModels,1
;   printerModelsOverride
;   startingGcode,G29 S1,,T0
;   layerChangeGcode,
;   retractionGcode,
;   toolChangeGcode,
;   endingGcode,;Drop Bed,G91,G1 Z2 F1000,G90,,; Drop off the tool,T-1,,; Disable Mesh Compensation.,G29 S2,,; Park,G1 X-30 Y200 F50000,,M0	;turn off all heaters
;   exportFileFormat,gcode
;   celebration,0
;   celebrationSong,Star Wars
;   postProcessing,
;   defaultSpeed,2400
;   outlineUnderspeed,1
;   solidInfillUnderspeed,1
;   supportUnderspeed,1
;   rapidXYspeed,21000
;   rapidZspeed,1500
;   minBridgingArea,50
;   bridgingExtraInflation,1
;   bridgingExtrusionMultiplier,1
;   bridgingSpeedMultiplier,1
;   useFixedBridgingAngle,0
;   fixedBridgingAngle,0
;   applyBridgingToPerimeters,1
;   filamentDiameters,1.75|1.75|1.75|1.75|1.75|1.75
;   filamentPricesPerKg,46|46|46|46|46|46
;   filamentDensities,1.25|1.25|1.25|1.25|1.25|1.25
;   useMinPrintHeight,0
;   minPrintHeight,12
;   useMaxPrintHeight,0
;   maxPrintHeight,1
;   useDiaphragm,0
;   diaphragmLayerInterval,20
;   robustSlicing,1
;   mergeAllIntoSolid,0
;   onlyRetractWhenCrossingOutline,0
;   retractBetweenLayers,0
;   useRetractionMinTravel,1
;   retractionMinTravel,1
;   retractWhileWiping,1
;   onlyWipeOutlines,1
;   avoidCrossingOutline,0
;   maxMovementDetourFactor,3
;   toolChangeRetractionDistance,5
;   toolChangeExtraRestartDistance,0
;   toolChangeRetractionSpeed,3000
;   externalThinWallType,0
;   internalThinWallType,0
;   thinWallAllowedOverlapPercentage,5
;   singleExtrusionMinLength,0.5
;   singleExtrusionMinPrintingWidthPercentage,50
;   singleExtrusionMaxPrintingWidthPercentage,150
;   singleExtrusionEndpointExtension,0.2
;   horizontalSizeCompensation,0
G90
M83
G29 S1
; process T0
; layer 1, Z = 0.250
T0
G1 E-4.0000 F3000
; feature prime pillar
; tool H0.250 W0.480
G1 Z0.500 F1500
G1 X24.263 Y95.358 F21000
G1 Z0.250 F1500
G1 E4.0000 F3000
G1 X33.783 Y95.358 E0.4750 F1200
G1 X33.783 Y104.878 E0.4750
G1 X24.263 Y104.878 E0.4750
G1 X24.263 Y95.358 E0.4750
G1 E-4.0000 F3000
G1 Z0.750 F1500
G1 X24.623 Y103.929 F21000
G1 Z0.250 F1500
G1 E4.0000 F3000
G1 X25.211 Y104.518 E0.0415 F1200
G1 X25.890 Y104.518 E0.0339
G1 X24.623 Y103.251 E0.0894
G1 X24.623 Y102.572 E0.0339
G1 X26.569 Y104.518 E0.1373
G1 X27.248 Y104.518 E0.0339
G1 X24.623 Y101.893 E0.1852
G1 X24.623 Y101.214 E0.0339
G1 X27.927 Y104.518 E0.2331
G1 X28.606 Y104.518 E0.0339
G1 X24.623 Y100.535 E0.2810
G1 X24.623 Y99.856 E0.0339
G1 X29.284 Y104.518 E0.3289
G1 X29.963 Y104.518 E0.0339
G1 X24.623 Y99.178 E0.3768
G1 X24.623 Y98.499 E0.0339
G1 X30.642 Y104.518 E0.4247
G1 X31.321 Y104.518 E0.0339
G1 X24.623 Y97.820 E0.4726
G1 X24.623 Y97.141 E0.0339
G1 X32.000 Y104.518 E0.5204
G1 X32.678 Y104.518 E0.0339
G1 X24.623 Y96.462 E0.5683
G1 X24.623 Y95.784 E0.0339
G1 X33.357 Y104.518 E0.6162
G1 X33.423 Y104.518 E0.0033
G1 X33.423 Y103.905 E0.0306
G1 X25.236 Y95.718 E0.5776
G1 X25.915 Y95.718 E0.0339
G1 X33.423 Y103.226 E0.5297
G1 X33.423 Y102.547 E0.0339
G1 X26.594 Y95.718 E0.4819
G1 X27.273 Y95.718 E0.0339
G1 X33.423 Y101.868 E0.4340
G1 X33.423 Y101.189 E0.0339
G1 X27.951 Y95.718 E0.3861
G1 X28.630 Y95.718 E0.0339
G1 X33.423 Y100.511 E0.3382
G1 X33.423 Y99.832 E0.0339
G1 X29.309 Y95.718 E0.2903
G1 X29.988 Y95.718 E0.0339
G1 X33.423 Y99.153 E0.2424
G1 X33.423 Y98.474 E0.0339
G1 X30.667 Y95.718 E0.1945
G1 X31.346 Y95.718 E0.0339
G1 X33.423 Y97.795 E0.1466
G1 X33.423 Y97.117 E0.0339
G1 X32.024 Y95.718 E0.0987
G1 X32.703 Y95.718 E0.0339
G1 X33.423 Y96.438 E0.0508
G1 X33.423 Y95.759 E0.0339
G1 X33.382 Y95.718 E0.0029
G1 E-4.0000 F3000
; feature outer perimeter
G1 Z0.750 F1500
G1 X227.572 Y100.320 F21000
G1 Z0.250 F1500
G1 E4.0000 F3000
G1 X230.572 Y100.320 E0.1497 F1200
G1 X230.572 Y92.434 E0.3934
G1 X229.572 Y92.434 E0.0499
G1 X229.572 Y92.420 E0.0007
G1 X230.572 Y92.420 E0.0499
G1 X230.572 Y84.534 E0.3934
G1 X229.572 Y84.534 E0.0499
G1 X229.572 Y84.520 E0.0007
G1 X230.572 Y84.520 E0.0499
G1 X230.572 Y76.634 E0.3934
G1 X229.572 Y76.634 E0.0499
G1 X229.572 Y76.620 E0.0007
G1 X230.572 Y76.620 E0.0499
G1 X230.572 Y68.734 E0.3934
G1 X229.572 Y68.734 E0.0499
G1 X229.572 Y68.720 E0.0007
G1 X230.572 Y68.720 E0.0499
G1 X230.572 Y60.834 E0.3934
G1 X228.572 Y60.834 E0.0998
G1 X228.572 Y60.820 E0.0007
G1 X230.572 Y60.820 E0.0998
G1 X230.572 Y52.934 E0.3934
G1 X229.572 Y52.934 E0.0499
G1 X229.572 Y52.920 E0.0007
G1 X230.572 Y52.920 E0.0499
G1 X230.572 Y45.034 E0.3934
G1 X229.572 Y45.034 E0.0499
G1 X229.572 Y45.020 E0.0007
G1 X230.572 Y45.020 E0.0499
G1 X230.572 Y37.134 E0.3934
G1 X229.572 Y37.134 E0.0499
G1 X229.572 Y37.120 E0.0007
G1 X230.572 Y37.120 E0.0499
G1 X230.572 Y29.234 E0.3934
G1 X229.572 Y29.234 E0.0499
G1 X229.572 Y29.220 E0.0007
G1 X230.572 Y29.220 E0.0499
G1 X230.572 Y21.334 E0.3934
G1 X227.572 Y21.334 E0.1497
G1 X227.572 Y21.320 E0.0007
G1 X234.092 Y21.320 E0.3253
G1 X234.092 Y21.334 E0.0007
G1 X231.092 Y21.334 E0.1497
G1 X231.092 Y25.270 E0.1964
G1 X234.092 Y25.270 E0.1497
G1 X234.092 Y25.284 E0.0007
G1 X231.092 Y25.284 E0.1497
G1 X231.092 Y29.220 E0.1964
G1 X234.092 Y29.220 E0.1497
G1 X234.092 Y29.234 E0.0007
G1 X231.092 Y29.234 E0.1497
G1 X231.092 Y33.170 E0.1964
G1 X234.092 Y33.170 E0.1497
G1 X234.092 Y33.184 E0.0007
G1 X231.092 Y33.184 E0.1497
G1 X231.092 Y37.120 E0.1964
G1 X234.092 Y37.120 E0.1497
G1 X234.092 Y37.134 E0.0007
G1 X231.092 Y37.134 E0.1497
G1 X231.092 Y41.070 E0.1964
G1 X234.092 Y41.070 E0.1497
G1 X234.092 Y41.084 E0.0007
G1 X231.092 Y41.084 E0.1497
G1 X231.092 Y45.020 E0.1964
G1 X234.092 Y45.020 E0.1497
G1 X234.092 Y45.034 E0.0007
G1 X231.092 Y45.034 E0.1497
G1 X231.092 Y48.970 E0.1964
G1 X234.092 Y48.970 E0.1497
G1 X234.092 Y48.984 E0.0007
G1 X231.092 Y48.984 E0.1497
G1 X231.092 Y52.920 E0.1964
G1 X234.092 Y52.920 E0.1497
G1 X234.092 Y52.934 E0.0007
G1 X231.092 Y52.934 E0.1497
G1 X231.092 Y56.870 E0.1964
G1 X234.092 Y56.870 E0.1497
G1 X234.092 Y56.884 E0.0007
G1 X231.092 Y56.884 E0.1497
G1 X231.092 Y60.820 E0.1964
G1 X234.092 Y60.820 E0.1497
G1 X234.092 Y60.834 E0.0007
G1 X231.092 Y60.834 E0.1497
G1 X231.092 Y64.770 E0.1964
G1 X234.092 Y64.770 E0.1497
G1 X234.092 Y64.784 E0.0007
G1 X231.092 Y64.784 E0.1497
G1 X231.092 Y68.720 E0.1964
G1 X234.092 Y68.720 E0.1497
G1 X234.092 Y68.734 E0.0007
G1 X231.092 Y68.734 E0.1497
G1 X231.092 Y72.670 E0.1964
G1 X234.092 Y72.670 E0.1497
G1 X234.092 Y72.684 E0.0007
G1 X231.092 Y72.684 E0.1497
G1 X231.092 Y76.620 E0.1964
G1 X234.092 Y76.620 E0.1497
G1 X234.092 Y76.634 E0.0007
G1 X231.092 Y76.634 E0.1497
G1 X231.092 Y80.570 E0.1964
G1 X234.092 Y80.570 E0.1497
G1 X234.092 Y80.584 E0.0007
G1 X231.092 Y80.584 E0.1497
G1 X231.092 Y84.520 E0.1964
G1 X234.092 Y84.520 E0.1497
G1 X234.092 Y84.534 E0.0007
G1 X231.092 Y84.534 E0.1497
G1 X231.092 Y88.470 E0.1964
G1 X234.092 Y88.470 E0.1497
G1 X234.092 Y88.484 E0.0007
G1 X231.092 Y88.484 E0.1497
G1 X231.092 Y92.420 E0.1964
G1 X234.092 Y92.420 E0.1497
G1 X234.092 Y92.434 E0.0007
G1 X231.092 Y92.434 E0.1497
G1 X231.092 Y96.370 E0.1964
G1 X234.092 Y96.370 E0.1497
G1 X234.092 Y96.384 E0.0007
G1 X231.092 Y96.384 E0.1497
G1 X231.092 Y100.320 E0.1964
G1 X234.092 Y100.320 E0.1497
G1 X234.092 Y100.340 E0.0010
G1 X231.092 Y100.340 E0.1497
G1 X231.092 Y104.276 E0.1964
G1 X234.092 Y104.276 E0.1497
G1 X234.092 Y104.290 E0.0007
G1 X231.092 Y104.290 E0.1497
G1 X231.092 Y108.226 E0.1964
G1 X234.092 Y108.226 E0.1497
G1 X234.092 Y108.240 E0.0007
G1 X231.092 Y108.240 E0.1497
G1 X231.092 Y112.176 E0.1964
G1 X234.092 Y112.176 E0.1497
G1 X234.092 Y112.190 E0.0007
G1 X231.092 Y112.190 E0.1497
G1 X231.092 Y116.126 E0.1964
G1 X234.092 Y116.126 E0.1497
G1 X234.092 Y116.140 E0.0007
G1 X231.092 Y116.140 E0.1497
G1 X231.092 Y120.076 E0.1964
G1 X234.092 Y120.076 E0.1497
G1 X234.092 Y120.090 E0.0007
G1 X231.092 Y120.090 E0.1497
G1 X231.092 Y124.026 E0.1964
G1 X234.092 Y124.026 E0.1497
G1 X234.092 Y124.040 E0.0007
G1 X231.092 Y124.040 E0.1497
G1 X231.092 Y127.976 E0.1964
G1 X234.092 Y127.976 E0.1497
G1 X234.092 Y127.990 E0.0007
G1 X231.092 Y127.990 E0.1497
G1 X231.092 Y131.926 E0.1964
G1 X234.092 Y131.926 E0.1497
G1 X234.092 Y131.940 E0.0007
G1 X231.092 Y131.940 E0.1497
G1 X231.092 Y135.876 E0.1964
G1 X234.092 Y135.876 E0.1497
G1 X234.092 Y135.890 E0.0007
G1 X231.092 Y135.890 E0.1497
G1 X231.092 Y139.826 E0.1964
G1 X234.092 Y139.826 E0.1497
G1 X234.092 Y139.840 E0.0007
G1 X231.092 Y139.840 E0.1497
G1 X231.092 Y143.776 E0.1964
G1 X234.092 Y143.776 E0.1497
G1 X234.092 Y143.790 E0.0007
G1 X231.092 Y143.790 E0.1497
G1 X231.092 Y147.726 E0.1964
G1 X234.092 Y147.726 E0.1497
G1 X234.092 Y147.740 E0.0007
G1 X231.092 Y147.740 E0.1497
G1 X231.092 Y151.676 E0.1964
G1 X234.092 Y151.676 E0.1497
G1 X234.092 Y151.690 E0.0007
G1 X231.092 Y151.690 E0.1497
G1 X231.092 Y155.626 E0.1964
G1 X234.092 Y155.626 E0.1497
G1 X234.092 Y155.640 E0.0007
G1 X231.092 Y155.640 E0.1497
G1 X231.092 Y159.576 E0.1964
G1 X234.092 Y159.576 E0.1497
G1 X234.092 Y159.590 E0.0007
G1 X231.092 Y159.590 E0.1497
G1 X231.092 Y163.526 E0.1964
G1 X234.092 Y163.526 E0.1497
G1 X234.092 Y163.540 E0.0007
G1 X231.092 Y163.540 E0.1497
G1 X231.092 Y167.476 E0.1964
G1 X234.092 Y167.476 E0.1497
G1 X234.092 Y167.490 E0.0007
G1 X231.092 Y167.490 E0.1497
G1 X231.092 Y171.426 E0.1964
G1 X234.092 Y171.426 E0.1497
G1 X234.092 Y171.440 E0.0007
G1 X231.092 Y171.440 E0.1497
G1 X231.092 Y175.376 E0.1964
G1 X234.092 Y175.376 E0.1497
G1 X234.092 Y175.390 E0.0007
G1 X231.092 Y175.390 E0.1497
G1 X231.092 Y179.326 E0.1964
G1 X234.092 Y179.326 E0.1497
G1 X234.092 Y179.340 E0.0007
G1 X227.572 Y179.340 E0.3253
G1 X227.572 Y179.326 E0.0007
G1 X230.572 Y179.326 E0.1497
G1 X230.572 Y171.440 E0.3934
G1 X229.572 Y171.440 E0.0499
G1 X229.572 Y171.426 E0.0007
G1 X230.572 Y171.426 E0.0499
G1 X230.572 Y163.540 E0.3934
G1 X229.572 Y163.540 E0.0499
G1 X229.572 Y163.526 E0.0007
G1 X230.572 Y163.526 E0.0499
G1 X230.572 Y155.640 E0.3934
G1 X229.572 Y155.640 E0.0499
G1 X229.572 Y155.626 E0.0007
G1 X230.572 Y155.626 E0.0499
G1 X230.572 Y147.740 E0.3934
G1 X229.572 Y147.740 E0.0499
G1 X229.572 Y147.726 E0.0007
G1 X230.572 Y147.726 E0.0499
G1 X230.572 Y139.840 E0.3934
G1 X228.572 Y139.840 E0.0998
G1 X228.572 Y139.826 E0.0007
G1 X230.572 Y139.826 E0.0998
G1 X230.572 Y131.940 E0.3934
G1 X229.572 Y131.940 E0.0499
G1 X229.572 Y131.926 E0.0007
G1 X230.572 Y131.926 E0.0499
G1 X230.572 Y124.040 E0.3934
G1 X229.572 Y124.040 E0.0499
G1 X229.572 Y124.026 E0.0007
G1 X230.572 Y124.026 E0.0499
G1 X230.572 Y116.140 E0.3934
G1 X229.572 Y116.140 E0.0499
G1 X229.572 Y116.126 E0.0007
G1 X230.572 Y116.126 E0.0499
G1 X230.572 Y108.240 E0.3934
G1 X229.572 Y108.240 E0.0499
G1 X229.572 Y108.226 E0.0007
G1 X230.572 Y108.226 E0.0499
G1 X230.572 Y100.340 E0.3934
G1 X227.852 Y100.340 E0.1357
G1 X227.572 Y100.340 F1200
G1 X227.572 Y100.320
G1 X229.172 Y100.320 E-4.0000 F1200
G1 X230.572 Y100.320 F1200
G1 X230.572 Y99.320
G1 Z0.750 F1500
G1 X244.808 Y100.187 F21000
G1 Z0.250 F1500
G1 E4.0000 F3000
G1 X247.808 Y100.187 E0.1497 F1200
G1 X247.808 Y92.301 E0.3934
G1 X246.808 Y92.301 E0.0499
G1 X246.808 Y92.287 E0.0007
G1 X247.808 Y92.287 E0.0499
G1 X247.808 Y84.401 E0.3934
G1 X246.808 Y84.401 E0.0499
G1 X246.808 Y84.387 E0.0007
G1 X247.808 Y84.387 E0.0499
G1 X247.808 Y76.501 E0.3934
G1 X246.808 Y76.501 E0.0499
G1 X246.808 Y76.487 E0.0007
G1 X247.808 Y76.487 E0.0499
G1 X247.808 Y68.601 E0.3934
G1 X246.808 Y68.601 E0.0499
G1 X246.808 Y68.587 E0.0007
G1 X247.808 Y68.587 E0.0499
G1 X247.808 Y60.701 E0.3934
G1 X245.808 Y60.701 E0.0998
G1 X245.808 Y60.687 E0.0007
G1 X247.808 Y60.687 E0.0998
G1 X247.808 Y52.801 E0.3934
G1 X246.808 Y52.801 E0.0499
G1 X246.808 Y52.787 E0.0007
G1 X247.808 Y52.787 E0.0499
G1 X247.808 Y44.901 E0.3934
G1 X246.808 Y44.901 E0.0499
G1 X246.808 Y44.887 E0.0007
G1 X247.808 Y44.887 E0.0499
G1 X247.808 Y37.001 E0.3934
